kwork_juristConsalt/img/svg/saveSalary.svg

<svg width="100" height="100" viewBox="0 0 100 100" fill="none" xmlns="http://www.w3.org/2000/svg">
<g clip-path="url(#clip0)">
<path d="M8.00781 71.6797V85.3516C8.00781 89.6906 11.2533 93.5781 17.1467 96.298C22.3189 98.6854 29.1311 100 36.3281 100C43.5252 100 50.3373 98.6854 55.5098 96.298C61.4029 93.5781 64.6484 89.6906 64.6484 85.3516V71.6797H8.00781Z" fill="#FFE278"/>
<path d="M36.3281 71.6797V100C43.5252 100 50.3373 98.6854 55.5098 96.298C61.4029 93.5781 64.6484 89.6906 64.6484 85.3516V71.6797H36.3281Z" fill="#FFC178"/>
<path d="M8.00781 58.0078V71.6797C8.00781 76.0187 11.2533 79.9062 17.1467 82.6262C22.3189 85.0135 29.1311 86.3281 36.3281 86.3281C43.5252 86.3281 50.3373 85.0135 55.5098 82.6262C61.4029 79.9062 64.6484 76.0187 64.6484 71.6797V58.0078H8.00781Z" fill="#FFC178"/>
<path d="M36.3281 58.0078V86.3281C43.5252 86.3281 50.3373 85.0135 55.5098 82.6262C61.4029 79.9062 64.6484 76.0187 64.6484 71.6797V58.0078H36.3281Z" fill="#FF936B"/>
<path d="M8.00781 44.3359V58.0078C8.00781 62.3469 11.2533 66.2344 17.1467 68.9543C22.3189 71.3416 29.1311 72.6562 36.3281 72.6562C43.5252 72.6562 50.3373 71.3416 55.5098 68.9543C61.4029 66.2344 64.6484 62.3469 64.6484 58.0078V44.3359H8.00781Z" fill="#FFE278"/>
<path d="M36.3281 44.3359V72.6562C43.5252 72.6562 50.3373 71.3416 55.5098 68.9543C61.4029 66.2344 64.6484 62.3469 64.6484 58.0078V44.3359H36.3281Z" fill="#FFC178"/>
<path d="M8.00781 30.6641V44.3359C8.00781 48.675 11.2533 52.5625 17.1467 55.2824C22.3189 57.6697 29.1311 58.9844 36.3281 58.9844C43.5252 58.9844 50.3373 57.6697 55.5098 55.2824C61.4029 52.5625 64.6484 48.675 64.6484 44.3359V30.6641H8.00781Z" fill="#FFC178"/>
<path d="M36.3281 30.6641V58.9844C43.5252 58.9844 50.3373 57.6697 55.5098 55.2824C61.4029 52.5625 64.6484 48.675 64.6484 44.3359V30.6641H36.3281Z" fill="#FF936B"/>
<path d="M36.3281 45.3125C29.1311 45.3125 22.3189 43.9979 17.1467 41.6105C11.2533 38.8906 8.00781 35.0031 8.00781 30.6641C8.00781 26.325 11.2533 22.4375 17.1467 19.7176C22.3189 17.3303 29.1311 16.0156 36.3281 16.0156C43.5252 16.0156 50.3373 17.3303 55.5098 19.7176C61.4029 22.4375 64.6484 26.325 64.6484 30.6641C64.6484 35.0031 61.4029 38.8906 55.5098 41.6105C50.3373 43.9979 43.5252 45.3125 36.3281 45.3125Z" fill="#FFE278"/>
<path d="M55.5098 19.7176C50.3373 17.3303 43.5252 16.0156 36.3281 16.0156V45.3125C43.5252 45.3125 50.3373 43.9979 55.5098 41.6105C61.4029 38.8906 64.6484 35.0031 64.6484 30.6641C64.6484 26.325 61.4029 22.4375 55.5098 19.7176Z" fill="#FFC178"/>
<path d="M71.4844 48.8205C71.0789 48.8205 70.6732 48.7363 70.2945 48.568C58.5592 43.3523 50.9766 31.6844 50.9766 18.8424V6.82831C50.9766 5.6705 51.6584 4.62128 52.7164 4.15116C65.1699 -1.3838 77.7988 -1.3838 90.2523 4.15116C91.3104 4.62128 91.9922 5.6705 91.9922 6.82831V18.8424C91.9922 31.6844 84.4096 43.3523 72.6742 48.568C72.2955 48.7363 71.8898 48.8205 71.4844 48.8205Z" fill="#A2E786"/>
<path d="M90.2523 4.15117C84.0256 1.38379 77.7549 0 71.4844 0V48.8205C71.8898 48.8205 72.2955 48.7363 72.6742 48.568C84.4096 43.3523 91.9922 31.6844 91.9922 18.8424V6.82832C91.9922 5.67051 91.3104 4.62129 90.2523 4.15117Z" fill="#00CB75"/>
<path d="M56.8359 8.77197V18.8425C56.8359 28.9304 62.5437 38.1351 71.4844 42.6495C80.425 38.1353 86.1328 28.9306 86.1328 18.8425V8.77197C76.2943 4.84912 66.6744 4.84912 56.8359 8.77197Z" fill="#FFF5F5"/>
<path d="M86.1328 18.8425V8.77196C81.2135 6.81063 76.349 5.82977 71.4844 5.82977V42.6493C80.425 38.135 86.1328 28.9304 86.1328 18.8425Z" fill="#E2DFF4"/>
<path d="M67.3413 30.6212L63.1981 26.4779C62.054 25.3337 62.054 23.4788 63.1981 22.3347C64.3423 21.1906 66.1971 21.1906 67.3413 22.3347L69.4128 24.4064L75.6274 18.1915C76.7716 17.0474 78.6264 17.0474 79.7706 18.1915C80.9147 19.3357 80.9147 21.1906 79.7706 22.3347L71.4845 30.6212C70.3403 31.7654 68.4854 31.7654 67.3413 30.6212Z" fill="#0A789B"/>
<path d="M79.7707 18.1915C78.6266 17.0474 76.7717 17.0474 75.6275 18.1915L71.4844 22.3347V30.6212L79.7707 22.3347C80.9149 21.1906 80.9149 19.3357 79.7707 18.1915Z" fill="#08475E"/>
</g>
<defs>
<clipPath id="clip0">
<rect width="100" height="100" fill="white"/>
</clipPath>
</defs>
</svg>

<svg width="100" height="100" fill="none" xmlns="http://www.w3.org/2000/svg"><g clip-path="url(#clip0)"><path d="M8.008 71.68v13.672c0 4.339 3.245 8.226 9.139 10.946C22.319 98.685 29.13 100 36.328 100c7.197 0 14.01-1.315 19.182-3.702 5.893-2.72 9.138-6.607 9.138-10.946V71.68H8.008z" fill="#FFE278"/><path d="M36.328 71.68V100c7.197 0 14.01-1.315 19.182-3.702 5.893-2.72 9.138-6.607 9.138-10.946V71.68h-28.32z" fill="#FFC178"/><path d="M8.008 58.008V71.68c0 4.339 3.245 8.226 9.139 10.946 5.172 2.387 11.984 3.702 19.181 3.702 7.197 0 14.01-1.315 19.182-3.702 5.893-2.72 9.138-6.607 9.138-10.946V58.008H8.008z" fill="#FFC178"/><path d="M36.328 58.008v28.32c7.197 0 14.01-1.315 19.182-3.702 5.893-2.72 9.138-6.607 9.138-10.946V58.008h-28.32z" fill="#FF936B"/><path d="M8.008 44.336v13.672c0 4.339 3.245 8.226 9.139 10.946 5.172 2.388 11.984 3.702 19.181 3.702 7.197 0 14.01-1.314 19.182-3.702 5.893-2.72 9.138-6.607 9.138-10.946V44.336H8.008z" fill="#FFE278"/><path d="M36.328 44.336v28.32c7.197 0 14.01-1.314 19.182-3.702 5.893-2.72 9.138-6.607 9.138-10.946V44.336h-28.32z" fill="#FFC178"/><path d="M8.008 30.664v13.672c0 4.339 3.245 8.227 9.139 10.946 5.172 2.388 11.984 3.702 19.181 3.702 7.197 0 14.01-1.314 19.182-3.702 5.893-2.72 9.138-6.607 9.138-10.946V30.664H8.008z" fill="#FFC178"/><path d="M36.328 30.664v28.32c7.197 0 14.01-1.314 19.182-3.702 5.893-2.72 9.138-6.607 9.138-10.946V30.664h-28.32z" fill="#FF936B"/><path d="M36.328 45.313c-7.197 0-14.01-1.315-19.181-3.703-5.894-2.72-9.14-6.607-9.14-10.946 0-4.339 3.246-8.227 9.14-10.946 5.172-2.388 11.984-3.702 19.181-3.702 7.197 0 14.01 1.314 19.182 3.702 5.893 2.72 9.138 6.607 9.138 10.946 0 4.34-3.245 8.227-9.138 10.947-5.173 2.387-11.985 3.702-19.182 3.702z" fill="#FFE278"/><path d="M55.51 19.718c-5.173-2.388-11.985-3.702-19.182-3.702v29.297c7.197 0 14.01-1.315 19.182-3.703 5.893-2.72 9.138-6.607 9.138-10.946 0-4.339-3.245-8.227-9.138-10.946z" fill="#FFC178"/><path d="M71.484 48.82a2.93 2.93 0 01-1.19-.252 32.557 32.557 0 01-19.317-29.726V6.828a2.93 2.93 0 011.74-2.677c12.453-5.535 25.082-5.535 37.535 0a2.93 2.93 0 011.74 2.677v12.014a32.557 32.557 0 01-19.318 29.726 2.93 2.93 0 01-1.19.253z" fill="#A2E786"/><path d="M90.252 4.151C84.026 1.384 77.755 0 71.484 0v48.82a2.93 2.93 0 001.19-.252 32.557 32.557 0 0019.318-29.726V6.828a2.93 2.93 0 00-1.74-2.677z" fill="#00CB75"/><path d="M56.836 8.772v10.07A26.697 26.697 0 0071.484 42.65a26.696 26.696 0 0014.649-23.807V8.772c-9.839-3.923-19.459-3.923-29.297 0z" fill="#FFF5F5"/><path d="M86.133 18.843V8.772c-4.92-1.961-9.784-2.942-14.649-2.942v36.82a26.696 26.696 0 0014.649-23.807z" fill="#E2DFF4"/><path d="M67.341 30.621l-4.143-4.143a2.93 2.93 0 014.143-4.143l2.072 2.071 6.214-6.214a2.93 2.93 0 014.144 4.143l-8.287 8.286a2.93 2.93 0 01-4.143 0z" fill="#0A789B"/><path d="M79.77 18.192a2.93 2.93 0 00-4.142 0l-4.144 4.143v8.286l8.287-8.286a2.93 2.93 0 000-4.143z" fill="#08475E"/></g><defs><clipPath id="clip0"><path fill="#fff" d="M0 0h100v100H0z"/></clipPath></defs></svg>
